static/assets/img/icons/theme/design/edit.svg

<svg height="24" viewBox="0 0 24 24" width="24" xmlns="http://www.w3.org/2000/svg"><g fill="none" fill-rule="evenodd"><path d="m0 0h24v24h-24z" opacity="0"/><g fill="#000"><path d="m8 17.9148182v-11.94795936c0-.40294103.16211443-.78893832.44982609-1.07104376l2.51588191-2.4668586c.5769718-.56572925 1.4983894-.57274727 2.0839116-.01587222l2.4841181 2.36258053c.2977227.28315641.4662623.67604327.4662623 1.08691598v12.05223743c0 .8284271-.6715729 1.5-1.5 1.5h-5c-.82842712 0-1.5-.6715729-1.5-1.5z" fill-rule="nonzero" transform="matrix(-.70710678 -.70710678 .70710678 -.70710678 12.914 26.763972)"/><rect height="2" opacity=".3" rx="1" width="15" x="5" y="20"/></g></g></svg>

<svg width="24px" height="24px" viewBox="0 0 24 24" version="1.1" xmlns="http://www.w3.org/2000/svg" xmlns:xlink="http://www.w3.org/1999/xlink">
    <title>Icon For Edit</title>
    <g stroke="none" stroke-width="1" fill="none" fill-rule="evenodd">
        <rect opacity="0" x="0" y="0" width="24" height="24"></rect>
        <path d="M8,17.9148182 L8,5.96685884 C8,5.56391781 8.16211443,5.17792052 8.44982609,4.89581508 L10.965708,2.42895648 C11.5426798,1.86322723 12.4640974,1.85620921 13.0496196,2.41308426 L15.5337377,4.77566479 C15.8314604,5.0588212 16,5.45170806 16,5.86258077 L16,17.9148182 C16,18.7432453 15.3284271,19.4148182 14.5,19.4148182 L9.5,19.4148182 C8.67157288,19.4148182 8,18.7432453 8,17.9148182 Z" fill="#000000" fill-rule="nonzero" transform="translate(12.000000, 10.707409) rotate(-135.000000) translate(-12.000000, -10.707409) "></path>
        <rect fill="#000000" opacity="0.3" x="5" y="20" width="15" height="2" rx="1"></rect>
    </g>
</svg>
